X:1
T:The Elephant
C:Camille Saint-Saëns
M:3/4
L:1/4
Q:1/4=60
K:Eb
% Lumbering waltz — double-bass melody (Carnival of Animals No.5), parodying Berlioz/Mendelssohn
% Range: Eb4–Bb4 (E–B in K:Eb). Pickup = 1 beat.
B | E2 G | B3 | G A B | E3 | B2 G | A2 B | G2 E | B3 | G A B | E2 G | B A G | E3 |]
